X:1
T:The Reel o' Stumpie
M:4/4
L:1/8
K:D
 FA d3/2 e/2d-c d2| FA d3/2 f/2 eE EG| FA d3/2 f/2 ed/2-c/2 d2| F/2 A3/2 E3/2 G/2 FD DG|\
 FG A3/2 F/2 G3/2 A/2 BG| F/2 FG AF GE E G/2| F3/2 G/2 AF G3/2 A/2 BG|\
 F3/2 A/2 E3/2 G/2 FD D2|
